packages/bezier-icons/icons/send-forward.svg

<svg width="24" height="24" viewBox="0 0 24 24" fill="none" xmlns="http://www.w3.org/2000/svg">
<path fill-rule="evenodd" clip-rule="evenodd" d="M9.62113 11.4434L5.34888 7.0001H17.2826L9.62113 11.4434ZM20.9876 5.0001H3.0001C2.11863 5.0001 1.66831 6.05778 2.27926 6.69319L8.54955 13.2145L11.0026 21.9203C11.2425 22.7719 12.3888 22.9153 12.8311 22.1491L21.8608 6.50934C21.8667 6.49927 21.8725 6.48911 21.8781 6.47886C22.2358 5.82503 21.7748 5.0226 21.0315 5.00056C21.0169 5.00008 21.0022 4.99993 20.9876 5.0001ZM18.2607 8.7448L10.6171 13.1778L12.2846 19.0957L18.2607 8.7448Z" fill="#313234"/>
</svg>

<svg xmlns="http://www.w3.org/2000/svg" width="24" height="24" fill="none" viewBox="0 0 24 24"><path fill="#313234" fill-rule="evenodd" d="M9.621 11.443 5.35 7h11.934zM20.988 5H3c-.881 0-1.332 1.058-.72 1.693l6.27 6.522 2.453 8.705c.24.852 1.386.995 1.828.23l9.03-15.64.017-.031A1 1 0 0 0 20.988 5M18.26 8.745l-7.644 4.433 1.668 5.918z" clip-rule="evenodd"/></svg>
